data/playwrite-au-qld.svg

<svg width="140.66" height="27.048" viewBox="0 0 140.66 27.048" xmlns="http://www.w3.org/2000/svg"><path transform="translate(0 19.992) scale(.014 -.014)" d="m116-14q-47 0-39 30l274 954q4 14 16 21t34 7h180q101 0 168.5-24t101.5-72.5 34-123.5q0-84-31-147.5t-89-107.5-137.5-72-175.5-40q-43-6-89-8.5t-88-3.5l-110-385q-5-14-15.5-21t-33.5-7zm182 493q26 0 56 1.5t60.5 4.5 58.5 6q102 17 174 52t110 91 38 134q0 54-24 86.5t-73.5 48-128.5 15.5h-145z"/><path transform="translate(10.878 19.992) scale(.014 -.014)" d="m129-15q-55 0-70.5 42.5t9.5 124.5l242 832q6 19 16 25t29 6q30 0 38.5-9t2.5-29l-256-874q-6-21-3.5-31.5t15.5-10.5q9 0 17.5 6t19 18 25.5 30q7 10 15.5 12t19.5-6q16-9 19.5-19t-1.5-20q-20-33-41.5-55t-46-32-50.5-10z"/><path transform="translate(15.064 19.992) scale(.014 -.014)" d="m157-17q-36 0-63 19t-41.5 54.5-14.5 83.5q0 47 13.5 99t40.5 101.5 66 90 89 64.5 112 24q29 0 60.5-7.5t61.5-21.5l1 4q5 13 15 17t27 4q30 0 39-9t3-29l-112-374q-5-18-5-27t4-12 9-3q10 0 20 6.5t22 18.5 25 29q8 10 16 12t19-6q16-10 19.5-19.5t-1.5-20.5q-9-16-28.5-39t-47-40-63.5-17q-35 0-53 15.5t-22 39 0.5 51 11.5 51.5q2 4 2.5 8t0.5 9q-39-59-78-98t-76.5-58.5-71.5-19.5zm-28 172q0-28 6-49t18.5-32 29.5-11q35 0 79 37.5t91.5 109 96.5 174.5l10 34q-32 14-60.5 18t-51.5 4q-41 0-75.5-18.5t-61-49.5-45-69-28-76.5-9.5-71.5z"/><path transform="translate(23.772 19.992) scale(.014 -.014)" d="m158-15q-45 0-71 21.5t-30 65 15 107.5l89 305q6 19 15.5 25t28.5 6q30 0 39-9t3-29l-95-318q-8-25-9.5-47t8.5-34.5 37-12.5q35 0 75 29.5t81 82.5 80.5 125.5 72.5 159.5l4 22q6 19 16 25t29 6q30 0 39-9t2-29l-218-751q-26-92-57-145.5t-75.5-76-113.5-22.5q-36 0-68 8.5t-59.5 24-48.5 32.5q-16 14-21 27.5t15 31.5q18 15 29 16.5t27-13.5q28-22 59.5-36t71.5-14q42 0 70 16.5t48 53.5 38 99l133 461q-30-50-61.5-88t-64.5-64-66.5-39-66.5-13z"/><path transform="translate(32.564 19.992) scale(.014 -.014)" d="m173-19q-44 0-68.5 18t-34 49.5-6.5 71.5 16 82l80 283q4 14 13 22.5t33 8.5q31 0 38.5-9.5t2.5-27.5l-85-293q-9-33-12.5-62t6-46 39.5-17q28 0 56.5 20.5t55 54.5 49 75.5 39.5 83.5l55 190q4 14 13 22.5t32 8.5q32 0 38.5-9.5t0.5-27.5l-75-279q-4-17-8-40.5t-2.5-46.5 13-37.5 38.5-14.5q32 0 63.5 21t58 55.5 47 77.5 32.5 88.5 12 86.5q0 10-0.5 22t-2 25.5-5.5 26.5q-4 18-0.5 30.5t13.5 18.5 25 6q19 0 30.5-11t16.5-37q4-10 6-21t2.5-22 0.5-23q0-54-15.5-112.5t-44-114-68-100-88-71-104.5-26.5q-45 0-71.5 18t-38 47.5-12.5 65.5q-24-39-52.5-68.5t-61.5-46-70-16.5z"/><path transform="translate(44.534 19.992) scale(.014 -.014)" d="m90-15q-17 0-30 7t-8 25l116 401q3 11-0.5 18.5t-13.5 7.5q-9 0-20.5-6t-27-20.5-37.5-39.5q-13-14-23.5-16t-25.5 8q-18 14-16 25.5t10 22.5q22 28 45 51t51 36.5 65 13.5q36 0 53.5-13t22.5-34 1.5-44.5-8.5-44.5l-19-66q28 50 56 87.5t55 63 51 38.5 44 13q15 0 21-7t5-31q0-25 2.5-41t9.5-23.5 19-7.5q21 0 46 11.5t78 43.5q11 6 21 0.5t16-16.5 5.5-23.5-11.5-19.5q-48-34-85-49.5t-77-15.5q-21 0-41 8t-33.5 27.5-14.5 52.5q-22-15-52.5-48t-63.5-80.5-65-108.5-59-131l-15-49q-3-13-13.5-19.5t-33.5-6.5z"/><path transform="translate(52.248 19.992) scale(.014 -.014)" d="m127-15q-55 0-70 42.5t9 124.5l95 332q6 19 15.5 25t28.5 6q30 0 39-9t3-29l-109-374q-6-21-3.5-31.5t15.5-10.5q8 0 17 6t19.5 18 26.5 30q7 10 15 12t20-6q15-9 19-19t-2-20q-20-33-41.5-55t-45.5-32-51-10zm133 684q-21 0-35 13.5t-14 38.5q0 28 17 51t53 23q22 0 36-13t14-39q0-28-17-51t-54-23z"/><path transform="translate(56.448 19.992) scale(.014 -.014)" d="m162-15q-39 0-62.5 18t-28.5 54 11 88l78 275h-76q-11 0-15.5 10t0.5 30 14.5 30 21.5 10h79l58 199q6 19 15.5 25t29.5 6q30 0 39-9t2-29l-57-192h127q11 0 15.5-9.5t-0.5-30.5q-4-19-14-29.5t-21-10.5h-130l-87-295q-10-34-4.5-49t23.5-15q20 0 46.5 17t53.5 55q9 9 18 10.5t24-7.5q15-8 17.5-18t-1.5-18q-12-22-36.5-49t-59.5-46.5-80-19.5z"/><path transform="translate(61.88 19.992) scale(.014 -.014)" d="m227-19q-61 0-100 25t-57.5 68.5-18.5 96.5q0 59 20.5 120.5t59.5 113 96.5 83 131.5 31.5q48 0 79.5-15t47.5-41.5 16-63.5q0-42-25-75t-67-59-95.5-45-109.5-31.5-109-20.5l7 70q34 6 75 14.5t82 20.5 75.5 29 55 39 20.5 51q0 25-17.5 36.5t-45.5 11.5q-47 0-86-24t-65.5-63-41.5-85-15-90q0-35 10.5-62t32-41 55.5-14 61 13.5 51 36 47 48.5q12 14 27.5 10.5t26.5-14.5q10-11 11.5-23t-9.5-27q-37-47-75-74t-76-38.5-75-11.5z"/><path transform="translate(73.444 19.992) scale(.014 -.014)" d="m-6-14q-26 0-34 15t6 37l588 937q14 23 28 31.5t39 8.5q19 0 30.5-9.5t13.5-40.5l76-934q3-20-8.5-32.5t-37.5-12.5q-22 0-29 8.5t-10 28.5l-20 260h-418l-161-257q-16-26-26.5-33t-36.5-7zm275 377h361l-43 512z"/><path transform="translate(85.106 19.992) scale(.014 -.014)" d="m336-19q-66 0-110.5 23t-67.5 68.5-23 110.5 24 149l184 656q5 14 16.5 20.5t34.5 6.5 34-7 7-23l-190-663q-19-66-21.5-114.5t10.5-79.5 40.5-46.5 68.5-15.5q43 0 88 16t91 47.5 93.5 78.5 95 109 96.5 139l151 532q5 14 17.5 20.5t33.5 6.5q22 0 33-8t6-22l-277-972q-4-14-16.5-20.5t-34.5-6.5-32.5 8-6.5 20l69 244q-48-66-98-118t-102-87-105.5-53.5-108.5-18.5z"/><path transform="translate(103.05 19.992) scale(.014 -.014)" d="m673-211q-18-4-30 2.5t-19 25.5l-124 348q-7 20 0.5 34t27.5 19q18 5 30-2.5t18-24.5l125-349q7-19 0-33t-28-20zm-185 192q-77 0-140 27t-108 78-68.5 122-23.5 159q0 73 15.5 149t47 148.5 77 136 105 112 133 75.5 158.5 27q77 0 139.5-27t106.5-77.5 68-121 24-158.5q0-78-16.5-156t-48.5-150.5-78-135-105.5-109-131-73-154.5-26.5zm13 85q67 0 124 23t105 63.5 85 94.5 62 116 38.5 127.5 13.5 129.5q0 75-17 132.5t-50 97.5-81 60-111 20q-65 0-122.5-23t-105-64-85-95-63.5-115.5-39.5-126-13.5-128.5q0-74 17-132.5t50-98 81.5-60.5 111.5-21z"/><path transform="translate(117.43 19.992) scale(.014 -.014)" d="m118 0q-45 0-33 40l271 948q5 14 15 20.5t32 6.5q23 0 34-7t5-23l-259-905h411q11 0 15.5-9.5t-1.5-30.5q-4-19-13.5-29.5t-21.5-10.5z"/><path transform="translate(127.15 19.992) scale(.014 -.014)" d="m115 0q-44 0-36 28l273 942q4 14 17 21t35 7h176q98 0 171.5-25t122.5-69.5 73-104 24-128.5q0-118-32.5-220.5t-93-185-142.5-142-182-91.5-211-32zm68 85h127q91 0 175 26t154.5 76.5 123 122.5 81.5 163 29 198q0 56-20.5 101t-59 76-92.5 48-122 17h-156z"/></svg>

<?xml version="1.0" encoding="utf-8" ?>
<svg baseProfile="tiny" height="100%" version="1.2" width="100%" xmlns="http://www.w3.org/2000/svg" xmlns:ev="http://www.w3.org/2001/xml-events" xmlns:xlink="http://www.w3.org/1999/xlink"><defs /><g><path d="M116 -14Q69 -14 77 16L351 970Q355 984 367.0 991.0Q379 998 401 998H581Q682 998 749.5 974.0Q817 950 851.0 901.5Q885 853 885 778Q885 694 854.0 630.5Q823 567 765.0 523.0Q707 479 627.5 451.0Q548 423 452 411Q409 405 363.0 402.5Q317 400 275 399L165 14Q160 0 149.5 -7.0Q139 -14 116 -14ZM298 479Q324 479 354.0 480.5Q384 482 414.5 485.0Q445 488 473 491Q575 508 647.0 543.0Q719 578 757.0 634.0Q795 690 795 768Q795 822 771.0 854.5Q747 887 697.5 902.5Q648 918 569 918H424Z" transform="translate(0.0, 72) scale(0.072, -0.072)" /><path d="M129 -15Q74 -15 58.5 27.5Q43 70 68 152L310 984Q316 1003 326.0 1009.0Q336 1015 355 1015Q385 1015 393.5 1006.0Q402 997 396 977L140 103Q134 82 136.5 71.5Q139 61 152 61Q161 61 169.5 67.0Q178 73 188.5 85.0Q199 97 214 115Q221 125 229.5 127.0Q238 129 249 121Q265 112 268.5 102.0Q272 92 267 82Q247 49 225.5 27.0Q204 5 179.5 -5.0Q155 -15 129 -15Z" transform="translate(55.943999999999996, 72) scale(0.072, -0.072)" /><path d="M157 -17Q121 -17 94.0 2.0Q67 21 52.5 56.5Q38 92 38 140Q38 187 51.5 239.0Q65 291 92.0 340.5Q119 390 158.0 430.5Q197 471 247.0 495.0Q297 519 359 519Q388 519 419.5 511.5Q451 504 481 490L482 494Q487 507 497.0 511.0Q507 515 524 515Q554 515 563.0 506.0Q572 497 566 477L454 103Q449 85 449.0 76.0Q449 67 453.0 64.0Q457 61 462 61Q472 61 482.0 67.5Q492 74 504.0 86.0Q516 98 529 115Q537 125 545.0 127.0Q553 129 564 121Q580 111 583.5 101.5Q587 92 582 81Q573 65 553.5 42.0Q534 19 506.5 2.0Q479 -15 443 -15Q408 -15 390.0 0.5Q372 16 368.0 39.5Q364 63 368.5 90.5Q373 118 380 142Q382 146 382.5 150.0Q383 154 383 159Q344 100 305.0 61.0Q266 22 228.5 2.5Q191 -17 157 -17ZM129 155Q129 127 135.0 106.0Q141 85 153.5 74.0Q166 63 183 63Q218 63 262.0 100.5Q306 138 353.5 209.5Q401 281 450 384L460 418Q428 432 399.5 436.0Q371 440 348 440Q307 440 272.5 421.5Q238 403 211.5 372.0Q185 341 166.5 303.0Q148 265 138.5 226.5Q129 188 129 155Z" transform="translate(77.472, 72) scale(0.072, -0.072)" /><path d="M158 -15Q113 -15 87.0 6.5Q61 28 57.0 71.5Q53 115 72 179L161 484Q167 503 176.5 509.0Q186 515 205 515Q235 515 244.0 506.0Q253 497 247 477L152 159Q144 134 142.5 112.0Q141 90 151.0 77.5Q161 65 188 65Q223 65 263.0 94.5Q303 124 344.0 177.0Q385 230 424.5 302.5Q464 375 497 462L501 484Q507 503 517.0 509.0Q527 515 546 515Q576 515 585.0 506.0Q594 497 587 477L369 -274Q343 -366 312.0 -419.5Q281 -473 236.5 -495.5Q192 -518 123 -518Q87 -518 55.0 -509.5Q23 -501 -4.5 -485.5Q-32 -470 -53 -453Q-69 -439 -74.0 -425.5Q-79 -412 -59 -394Q-41 -379 -30.0 -377.5Q-19 -376 -3 -391Q25 -413 56.5 -427.0Q88 -441 128 -441Q170 -441 198.0 -424.5Q226 -408 246.0 -371.0Q266 -334 284 -272L417 189Q387 139 355.5 101.0Q324 63 291.0 37.0Q258 11 224.5 -2.0Q191 -15 158 -15Z" transform="translate(122.256, 72) scale(0.072, -0.072)" /><path d="M173 -19Q129 -19 104.5 -1.0Q80 17 70.5 48.5Q61 80 64.0 120.0Q67 160 80 202L160 485Q164 499 173.0 507.5Q182 516 206 516Q237 516 244.5 506.5Q252 497 247 479L162 186Q153 153 149.5 124.0Q146 95 155.5 78.0Q165 61 195 61Q223 61 251.5 81.5Q280 102 306.5 136.0Q333 170 355.5 211.5Q378 253 395 295L450 485Q454 499 463.0 507.5Q472 516 495 516Q527 516 533.5 506.5Q540 497 534 479L459 200Q455 183 451.0 159.5Q447 136 448.5 113.0Q450 90 461.5 75.5Q473 61 500 61Q532 61 563.5 82.0Q595 103 621.5 137.5Q648 172 668.5 215.0Q689 258 701.0 303.5Q713 349 713 390Q713 400 712.5 412.0Q712 424 710.5 437.5Q709 451 705 464Q701 482 704.5 494.5Q708 507 718.0 513.0Q728 519 743 519Q762 519 773.5 508.0Q785 497 790 471Q794 461 796.0 450.0Q798 439 798.5 428.0Q799 417 799 405Q799 351 783.5 292.5Q768 234 739.5 178.5Q711 123 671.5 78.5Q632 34 583.5 7.5Q535 -19 479 -19Q434 -19 407.5 -1.0Q381 17 369.5 46.5Q358 76 357 112Q333 73 304.5 43.5Q276 14 243.0 -2.5Q210 -19 173 -19Z" transform="translate(167.47199999999998, 72) scale(0.072, -0.072)" /><path d="M90 -15Q73 -15 60.0 -8.0Q47 -1 52 17L168 418Q171 429 167.5 436.5Q164 444 154 444Q145 444 133.5 438.0Q122 432 106.5 417.5Q91 403 69 378Q56 364 45.5 362.0Q35 360 20 370Q2 384 4.0 395.5Q6 407 14 418Q36 446 59.0 469.0Q82 492 110.0 505.5Q138 519 175 519Q211 519 228.5 506.0Q246 493 251.0 472.0Q256 451 252.5 427.5Q249 404 244 383L225 317Q253 367 281.0 404.5Q309 442 336.0 467.5Q363 493 387.0 506.0Q411 519 431 519Q446 519 452.0 512.0Q458 505 457 481Q457 456 459.5 440.0Q462 424 469.0 416.5Q476 409 488 409Q509 409 534.0 420.5Q559 432 612 464Q623 470 633.0 464.5Q643 459 649.0 448.0Q655 437 654.5 424.5Q654 412 643 405Q595 371 558.0 355.5Q521 340 481 340Q460 340 440.0 348.0Q420 356 406.5 375.5Q393 395 392 428Q370 413 339.5 380.0Q309 347 276.0 299.5Q243 252 211.0 191.0Q179 130 152 60L137 11Q134 -2 123.5 -8.5Q113 -15 90 -15Z" transform="translate(229.03199999999998, 72) scale(0.072, -0.072)" /><path d="M127 -15Q72 -15 57.0 27.5Q42 70 66 152L161 484Q167 503 176.5 509.0Q186 515 205 515Q235 515 244.0 506.0Q253 497 247 477L138 103Q132 82 134.5 71.5Q137 61 150 61Q158 61 167.0 67.0Q176 73 186.5 85.0Q197 97 213 115Q220 125 228.0 127.0Q236 129 248 121Q263 112 267.0 102.0Q271 92 265 82Q245 49 223.5 27.0Q202 5 178.0 -5.0Q154 -15 127 -15ZM260 669Q239 669 225.0 682.5Q211 696 211 721Q211 749 228.0 772.0Q245 795 281 795Q303 795 317.0 782.0Q331 769 331 743Q331 715 314.0 692.0Q297 669 260 669Z" transform="translate(268.70399999999995, 72) scale(0.072, -0.072)" /><path d="M162 -15Q123 -15 99.5 3.0Q76 21 71.0 57.0Q66 93 82 145L160 420H84Q73 420 68.5 430.0Q64 440 69 460Q74 480 83.5 490.0Q93 500 105 500H184L242 699Q248 718 257.5 724.0Q267 730 287 730Q317 730 326.0 721.0Q335 712 328 692L271 500H398Q409 500 413.5 490.5Q418 481 413 460Q409 441 399.0 430.5Q389 420 378 420H248L161 125Q151 91 156.5 76.0Q162 61 180 61Q200 61 226.5 78.0Q253 95 280 133Q289 142 298.0 143.5Q307 145 322 136Q337 128 339.5 118.0Q342 108 338 100Q326 78 301.5 51.0Q277 24 242.0 4.5Q207 -15 162 -15Z" transform="translate(290.304, 72) scale(0.072, -0.072)" /><path d="M227 -19Q166 -19 127.0 6.0Q88 31 69.5 74.5Q51 118 51 171Q51 230 71.5 291.5Q92 353 131.0 404.5Q170 456 227.5 487.5Q285 519 359 519Q407 519 438.5 504.0Q470 489 486.0 462.5Q502 436 502 399Q502 357 477.0 324.0Q452 291 410.0 265.0Q368 239 314.5 220.0Q261 201 205.0 188.5Q149 176 96 168L103 238Q137 244 178.0 252.5Q219 261 260.0 273.0Q301 285 335.5 302.0Q370 319 390.5 341.0Q411 363 411 392Q411 417 393.5 428.5Q376 440 348 440Q301 440 262.0 416.0Q223 392 196.5 353.0Q170 314 155.0 268.0Q140 222 140 178Q140 143 150.5 116.0Q161 89 182.5 75.0Q204 61 238 61Q272 61 299.0 74.5Q326 88 350.0 110.5Q374 133 397 159Q409 173 424.5 169.5Q440 166 451 155Q461 144 462.5 132.0Q464 120 453 105Q416 58 378.0 31.0Q340 4 302.0 -7.5Q264 -19 227 -19Z" transform="translate(318.23999999999995, 72) scale(0.072, -0.072)" /><path d="M-6 -14Q-32 -14 -40.0 1.0Q-48 16 -34 38L554 975Q568 998 582.0 1006.5Q596 1015 621 1015Q640 1015 651.5 1005.5Q663 996 665 965L741 31Q744 11 732.5 -1.5Q721 -14 695 -14Q673 -14 666.0 -5.5Q659 3 656 23L636 283H218L57 26Q41 0 30.5 -7.0Q20 -14 -6 -14ZM269 363H630L587 875Z" transform="translate(377.712, 72) scale(0.072, -0.072)" /><path d="M336 -19Q270 -19 225.5 4.0Q181 27 158.0 72.5Q135 118 135.0 183.0Q135 248 159 332L343 988Q348 1002 359.5 1008.5Q371 1015 394 1015Q417 1015 428.0 1008.0Q439 1001 435 985L245 322Q226 256 223.5 207.5Q221 159 234.0 128.0Q247 97 274.5 81.5Q302 66 343 66Q386 66 431.0 82.0Q476 98 522.0 129.5Q568 161 615.5 208.0Q663 255 710.5 317.0Q758 379 807 456L958 988Q963 1002 975.5 1008.5Q988 1015 1009 1015Q1031 1015 1042.0 1007.0Q1053 999 1048 985L771 13Q767 -1 754.5 -7.5Q742 -14 720 -14Q698 -14 687.5 -6.0Q677 2 681 14L750 258Q702 192 652.0 140.0Q602 88 550.0 53.0Q498 18 444.5 -0.5Q391 -19 336 -19Z" transform="translate(437.688, 72) scale(0.072, -0.072)" /><path d="M673 -211Q655 -215 643.0 -208.5Q631 -202 624 -183L500 165Q493 185 500.5 199.0Q508 213 528 218Q546 223 558.0 215.5Q570 208 576 191L701 -158Q708 -177 701.0 -191.0Q694 -205 673 -211ZM488 -19Q411 -19 348.0 8.0Q285 35 240.0 86.0Q195 137 171.5 208.0Q148 279 148 367Q148 440 163.5 516.0Q179 592 210.5 664.5Q242 737 287.5 800.5Q333 864 392.5 912.5Q452 961 525.5 988.0Q599 1015 684 1015Q761 1015 823.5 988.0Q886 961 930.0 910.5Q974 860 998.0 789.5Q1022 719 1022 631Q1022 553 1005.5 475.0Q989 397 957.0 324.5Q925 252 879.0 189.5Q833 127 773.5 80.5Q714 34 642.5 7.5Q571 -19 488 -19ZM501 66Q568 66 625.0 89.0Q682 112 730.0 152.5Q778 193 815.0 247.0Q852 301 877.0 363.0Q902 425 915.5 490.5Q929 556 929 620Q929 695 912.0 752.5Q895 810 862.0 850.0Q829 890 781.0 910.0Q733 930 670 930Q605 930 547.5 907.0Q490 884 442.5 843.0Q395 802 357.5 748.0Q320 694 294.0 632.5Q268 571 254.5 506.5Q241 442 241 378Q241 304 258.0 245.5Q275 187 308.0 147.5Q341 108 389.5 87.0Q438 66 501 66Z" transform="translate(529.992, 72) scale(0.072, -0.072)" /><path d="M118 0Q73 0 85 40L356 988Q361 1002 371.0 1008.5Q381 1015 403 1015Q426 1015 437.0 1008.0Q448 1001 442 985L183 80H594Q605 80 609.5 70.5Q614 61 608 40Q604 21 594.5 10.5Q585 0 573 0Z" transform="translate(603.9359999999999, 72) scale(0.072, -0.072)" /><path d="M115 0Q71 0 79 28L352 970Q356 984 369.0 991.0Q382 998 404 998H580Q678 998 751.5 973.0Q825 948 874.0 903.5Q923 859 947.0 799.5Q971 740 971 671Q971 553 938.5 450.5Q906 348 845.5 265.5Q785 183 703.0 123.5Q621 64 521.0 32.0Q421 0 310 0ZM183 85H310Q401 85 485.0 111.0Q569 137 639.5 187.5Q710 238 762.5 310.0Q815 382 844.0 473.0Q873 564 873 671Q873 727 852.5 772.0Q832 817 793.5 848.0Q755 879 701.0 896.0Q647 913 579 913H423Z" transform="translate(653.9039999999999, 72) scale(0.072, -0.072)" /></g></svg>
